dist/img/photo.svg

<svg width="64" height="64" viewBox="0 0 64 64" fill="none" xmlns="http://www.w3.org/2000/svg">
<path d="M11 4C7.14062 4 4 7.14062 4 11V53C4 56.8594 7.14062 60 11 60H53C56.8594 60 60 56.8594 60 53V11C60 7.14062 56.8594 4 53 4H11ZM11 6H53C55.7578 6 58 8.24219 58 11V53C58 55.7578 55.7578 58 53 58H11C8.24219 58 6 55.7578 6 53V11C6 8.24219 8.24219 6 11 6ZM12 12C11.4453 12 11 12.4453 11 13V15C11 15.5547 11.4453 16 12 16C12.5547 16 13 15.5547 13 15V13C13 12.4453 12.5547 12 12 12ZM17 12C16.4453 12 16 12.4453 16 13V15C16 15.5547 16.4453 16 17 16C17.5547 16 18 15.5547 18 15V13C18 12.4453 17.5547 12 17 12ZM22 12C21.4453 12 21 12.4453 21 13V15C21 15.5547 21.4453 16 22 16C22.5547 16 23 15.5547 23 15V13C23 12.4453 22.5547 12 22 12ZM27 12C26.4453 12 26 12.4453 26 13V15C26 15.0156 26.0117 15.0312 26.0117 15.0469C19.0273 17.5234 14 24.1797 14 32C14 41.9258 22.0742 50 32 50C41.9258 50 50 41.9258 50 32C50 24.1797 44.9727 17.5234 37.9883 15.0469C37.9883 15.0312 38 15.0156 38 15V13C38 12.4453 37.5547 12 37 12C36.4453 12 36 12.4453 36 13V14.4648C35.0273 14.2422 34.0234 14.1094 33 14.0508V13C33 12.4453 32.5547 12 32 12C31.4453 12 31 12.4453 31 13V14.0508C29.9766 14.1094 28.9727 14.2422 28 14.4648V13C28 12.4453 27.5547 12 27 12ZM42 12C41.4453 12 41 12.4453 41 13V15C41 15.5547 41.4453 16 42 16C42.5547 16 43 15.5547 43 15V13C43 12.4453 42.5547 12 42 12ZM47 12C46.4453 12 46 12.4453 46 13V15C46 15.5547 46.4453 16 47 16C47.5547 16 48 15.5547 48 15V13C48 12.4453 47.5547 12 47 12ZM52 12C51.4453 12 51 12.4453 51 13V15C51 15.5547 51.4453 16 52 16C52.5547 16 53 15.5547 53 15V13C53 12.4453 52.5547 12 52 12ZM32 16C40.8203 16 48 23.1797 48 32C48 40.8203 40.8203 48 32 48C23.1797 48 16 40.8203 16 32C16 23.1797 23.1797 16 32 16ZM32 19C24.832 19 19 24.832 19 32C19 39.168 24.832 45 32 45C39.168 45 45 39.168 45 32C45 24.832 39.168 19 32 19ZM32 21C38.0664 21 43 25.9336 43 32C43 38.0664 38.0664 43 32 43C25.9336 43 21 38.0664 21 32C21 25.9336 25.9336 21 32 21Z" fill="black"/>
<path d="M12 12C11.4453 12 11 12.4453 11 13V15C11 15.5547 11.4453 16 12 16C12.5547 16 13 15.5547 13 15V13C13 12.4453 12.5547 12 12 12ZM17 12C16.4453 12 16 12.4453 16 13V15C16 15.5547 16.4453 16 17 16C17.5547 16 18 15.5547 18 15V13C18 12.4453 17.5547 12 17 12ZM22 12C21.4453 12 21 12.4453 21 13V15C21 15.5547 21.4453 16 22 16C22.5547 16 23 15.5547 23 15V13C23 12.4453 22.5547 12 22 12ZM27 12C26.4453 12 26 12.4453 26 13V15C26 15.0156 26.0117 15.0312 26.0117 15.0469C19.0273 17.5234 14 24.1797 14 32C14 41.9258 22.0742 50 32 50C41.9258 50 50 41.9258 50 32C50 24.1797 44.9727 17.5234 37.9883 15.0469C37.9883 15.0312 38 15.0156 38 15V13C38 12.4453 37.5547 12 37 12C36.4453 12 36 12.4453 36 13V14.4648C35.0273 14.2422 34.0234 14.1094 33 14.0508V13C33 12.4453 32.5547 12 32 12C31.4453 12 31 12.4453 31 13V14.0508C29.9766 14.1094 28.9727 14.2422 28 14.4648V13C28 12.4453 27.5547 12 27 12ZM42 12C41.4453 12 41 12.4453 41 13V15C41 15.5547 41.4453 16 42 16C42.5547 16 43 15.5547 43 15V13C43 12.4453 42.5547 12 42 12ZM47 12C46.4453 12 46 12.4453 46 13V15C46 15.5547 46.4453 16 47 16C47.5547 16 48 15.5547 48 15V13C48 12.4453 47.5547 12 47 12ZM32 16C40.8203 16 48 23.1797 48 32C48 40.8203 40.8203 48 32 48C23.1797 48 16 40.8203 16 32C16 23.1797 23.1797 16 32 16ZM32 19C24.832 19 19 24.832 19 32C19 39.168 24.832 45 32 45C39.168 45 45 39.168 45 32C45 24.832 39.168 19 32 19ZM32 21C38.0664 21 43 25.9336 43 32C43 38.0664 38.0664 43 32 43C25.9336 43 21 38.0664 21 32C21 25.9336 25.9336 21 32 21Z" fill="#E12025"/>
</svg>

<svg xmlns="http://www.w3.org/2000/svg" fill="none" viewBox="0 0 64 64"><path fill="#000" d="M11 4c-3.86 0-7 3.14-7 7v42c0 3.86 3.14 7 7 7h42c3.86 0 7-3.14 7-7V11c0-3.86-3.14-7-7-7H11zm0 2h42c2.758 0 5 2.242 5 5v42c0 2.758-2.242 5-5 5H11c-2.758 0-5-2.242-5-5V11c0-2.758 2.242-5 5-5zm1 6c-.555 0-1 .445-1 1v2c0 .555.445 1 1 1 .555 0 1-.445 1-1v-2c0-.555-.445-1-1-1zm5 0c-.555 0-1 .445-1 1v2c0 .555.445 1 1 1 .555 0 1-.445 1-1v-2c0-.555-.445-1-1-1zm5 0c-.555 0-1 .445-1 1v2c0 .555.445 1 1 1 .555 0 1-.445 1-1v-2c0-.555-.445-1-1-1zm5 0c-.555 0-1 .445-1 1v2c0 .016.012.031.012.047C19.027 17.523 14 24.18 14 32c0 9.926 8.074 18 18 18s18-8.074 18-18c0-7.82-5.027-14.477-12.012-16.953 0-.016.012-.031.012-.047v-2c0-.555-.445-1-1-1-.555 0-1 .445-1 1v1.465a18.079 18.079 0 00-3-.414V13c0-.555-.445-1-1-1-.555 0-1 .445-1 1v1.05a18.079 18.079 0 00-3 .415V13c0-.555-.445-1-1-1zm15 0c-.555 0-1 .445-1 1v2c0 .555.445 1 1 1 .555 0 1-.445 1-1v-2c0-.555-.445-1-1-1zm5 0c-.555 0-1 .445-1 1v2c0 .555.445 1 1 1 .555 0 1-.445 1-1v-2c0-.555-.445-1-1-1zm5 0c-.555 0-1 .445-1 1v2c0 .555.445 1 1 1 .555 0 1-.445 1-1v-2c0-.555-.445-1-1-1zm-20 4c8.82 0 16 7.18 16 16s-7.18 16-16 16-16-7.18-16-16 7.18-16 16-16zm0 3c-7.168 0-13 5.832-13 13s5.832 13 13 13 13-5.832 13-13-5.832-13-13-13zm0 2c6.066 0 11 4.934 11 11s-4.934 11-11 11-11-4.934-11-11 4.934-11 11-11z"/><path fill="#E12025" d="M12 12c-.555 0-1 .445-1 1v2c0 .555.445 1 1 1 .555 0 1-.445 1-1v-2c0-.555-.445-1-1-1zm5 0c-.555 0-1 .445-1 1v2c0 .555.445 1 1 1 .555 0 1-.445 1-1v-2c0-.555-.445-1-1-1zm5 0c-.555 0-1 .445-1 1v2c0 .555.445 1 1 1 .555 0 1-.445 1-1v-2c0-.555-.445-1-1-1zm5 0c-.555 0-1 .445-1 1v2c0 .016.012.031.012.047C19.027 17.523 14 24.18 14 32c0 9.926 8.074 18 18 18s18-8.074 18-18c0-7.82-5.027-14.477-12.012-16.953 0-.016.012-.031.012-.047v-2c0-.555-.445-1-1-1-.555 0-1 .445-1 1v1.465a18.079 18.079 0 00-3-.414V13c0-.555-.445-1-1-1-.555 0-1 .445-1 1v1.05a18.079 18.079 0 00-3 .415V13c0-.555-.445-1-1-1zm15 0c-.555 0-1 .445-1 1v2c0 .555.445 1 1 1 .555 0 1-.445 1-1v-2c0-.555-.445-1-1-1zm5 0c-.555 0-1 .445-1 1v2c0 .555.445 1 1 1 .555 0 1-.445 1-1v-2c0-.555-.445-1-1-1zm-15 4c8.82 0 16 7.18 16 16s-7.18 16-16 16-16-7.18-16-16 7.18-16 16-16zm0 3c-7.168 0-13 5.832-13 13s5.832 13 13 13 13-5.832 13-13-5.832-13-13-13zm0 2c6.066 0 11 4.934 11 11s-4.934 11-11 11-11-4.934-11-11 4.934-11 11-11z"/></svg>
